X:12
T:Fairies' Hornpipe, The
R:hornpipe
H:Similar to "McNamara's", #27
H:The ending is also played |ABcd ecAF|G2GF G2|
Z:id:hn-hornpipe-12
M:C|
K:G
(3DEF|GFGA BdcB|AGAB G2Bc|dgfg edcB|cedB A2Bc|
dggf g2fe|dedc B2AG|ABcA dcAF|G2GF G2:|
|:Bc|dggf g2fe|dedc B2AG|ABcd edcB|Add^c d2B=c|
dggf g2fe|dedc B2AG|ABcA dcAF|G2GF G2:|

